!!!!SEGMENT: pl-wtm--r-1350--012_stefani-jozef--fraszka-muzyczna-allegro.krn
!!!cenid: 18xx:1861
!!!COM: Stefani, Józef
!!!COM-rismID: pe30024097
!!!CDT: 1800/04/16-1876/03/19
!!!CNT: Polish
!!!GTL: Fraszka muzyczna
!!!OTL: Allegro
!!!PDT:
!!!AGN: Secular
!!!SMS-siglum: PL-Wtm
!!!SMS-shelfmark: R 1350
!!!SMS-shelfwork: 012 G
!!!SMS-variant:
!!!SMS-altvar:
!!!NIFC-rismSourceID: 1001119433
!!!NIFC-rismChildID: 1001119476
!!!NIFC-islandoraID: pl-wtm:25286
!!!URL-pdf-islandora: https://repozytorium.nifc.pl/islandora/object/pl-wtm%3A25286/datastream/PDF/view
!!!URL-scan: https://polish.musicsources.pl/pl/lokalizacje/galeria/rekopisy/6202 @EN{Scan on Polish Music Sources Website} @PL{Skany w portalu Dziedzictwo Muzyki Polskiej w otwartym dostępie}
!!!ONB-nifc: UWAGA: skan 0007
!!!AIN: 1 forte
!!!key:
**kern	**fing	**kern	**fing	**dynam
*part1	*	*part1	*	*part1
*staff2	*	*staff1	*	*
*Iforte	*	*Iforte	*	*
*I"Fortepiano	*	*I"Fortepiano	*	*
*I'pf	*	*I'pf	*	*
*clefG2	*	*clefG2	*	*
*k[]	*	*k[]	*	*
*C:	*	*C:	*	*
*M4/4	*	*M4/4	*	*
*met(c)	*	*met(c)	*	*
=1	=1	=1	=1	=1
!	!	!LO:TX:i:a:t=Allegro.	!	!LO:DY:b:rj
!LO:TX:a:t=P:global:problem=palcowanie przy akordach z lewej strony	!	!LO:TX:a:t=P:all\right:problem	!	!
*	*below	*	*below	*
1g 1e 1c	5 3 1	8ccc\L	5	f
.	.	8bb\	.	.
.	.	8aa\	.	.
.	.	8gg\J	.	.
.	.	8ff\L	.	.
.	.	8ee\	3	.
.	.	8dd\	.	.
.	.	8cc\J	.	.
=2	=2	=2	=2	=2
2g 2f 2B/	5 2 1	8dd\L	.	.
.	.	8ee\	.	.
.	.	8ff\	.	.
.	.	8gg\J	.	.
4g 4e 4c/	5 3 1	4ee\	.	.
4r	.	4r	.	.
=3	=3	=3	=3	=3
1g 1e 1c	.	8ccc\L	.	.
.	.	8bb\	.	.
.	.	8aa\	.	.
.	.	8gg\J	.	.
.	.	8ff\L	.	.
.	.	8ee\	.	.
.	.	8dd\	.	.
.	.	8cc\J	.	.
!!LO:LB:g=original
=4	=4	=4	=4	=4
2g 2f 2B/	.	8dd\L	.	.
.	.	8cc\	.	.
.	.	8dd\	.	.
.	.	8ee\J	.	.
4g 4e 4c/	.	4cc\	.	.
4r	.	4r	.	.
=5	=5	=5	=5	=5
*	*	*	*above	*
8cc/L	1	1ccc 1gg 1ee	1 3 5	.
8b/	.	.	.	.
8a/	.	.	.	.
8g/J	1	.	.	.
8f/L	.	.	.	.
8e/	.	.	.	.
8d/	.	.	.	.
8c/J	.	.	.	.
=6	=6	=6	=6	=6
*	*	*2\right	*	*
8d/L	.	2bb 2gg 2dd\	1 3 5	.
8e/	.	.	.	.
8f/	.	.	.	.
8g/J	.	.	.	.
4e/	.	4ccc 4gg 4ee\	1 3 5	.
4r	.	4r	.	.
!!LO:LB:g=original
=7	=7	=7	=7	=7
8cc/L	.	1ccc 1gg 1ee	.	.
8b/	.	.	.	.
8a/	.	.	.	.
8g/J	.	.	.	.
8f/L	.	.	.	.
8e/	.	.	.	.
8d/	.	.	.	.
8c/J	.	.	.	.
=8	=8	=8	=8	=8
8d/L	.	2bb 2gg 2dd\	.	.
8c/	.	.	.	.
8d/	.	.	.	.
8e/J	.	.	.	.
4c/	.	4ccc 4gg 4ee\	.	.
4r	.	4r	.	.
==	==	==	==	==
*-	*-	*-	*-	*-
!!!system-decoration: {(s1,s2)}
!!!RDF**kern: > = above
!!!RDF**kern: < = below
!!!EED: Antoni Szymański
!!!EEV: 2021-05-04
!!!ENC: Andrzej Gręziak
!!!END: 2021-04-10
!!!YEC: Copyright 2022 Narodowy Instytut Fryderyka Chopina (https://polishscores.org)
!!!YEM: License CC-BY-4.0 (https://creativecommons.org/licenses/by/4.0)
